data/noto-znamenny-musical-notation.svg

<svg width="221.16" height="18.018" viewBox="0 0 221.16 18.018" xmlns="http://www.w3.org/2000/svg"><path transform="translate(0 13.93) scale(.014 -.014)" d="m663 0h-105l-382 593h-4q2-35 5-87t3-107v-399h-83v714h104l381-591h4q-1 16-2.5 48t-3 70-1.5 70v403h84z"/><path transform="translate(10.64 13.93) scale(.014 -.014)" d="m551 269q0-133-67.5-206t-182.5-73q-71 0-126.5 32.5t-87.5 95-32 151.5q0 133 67 205t182 72q73 0 128.5-32.5t87-94 31.5-150.5zm-405 0q0-95 37.5-150.5t119.5-55.5q81 0 119 55.5t38 150.5-38 149-120 54-119-54-37-149z"/><path transform="translate(19.11 13.93) scale(.014 -.014)" d="m264 62q20 0 41 3.5t34 7.5v-67q-14-7-40-11.5t-50-4.5q-42 0-77.5 14.5t-57.5 50.5-22 101v312h-76v42l77 35 35 114h52v-123h155v-68h-155v-310q0-49 23.5-72.5t60.5-23.5z"/><path transform="translate(24.164 13.93) scale(.014 -.014)" d="m551 269q0-133-67.5-206t-182.5-73q-71 0-126.5 32.5t-87.5 95-32 151.5q0 133 67 205t182 72q73 0 128.5-32.5t87-94 31.5-150.5zm-405 0q0-95 37.5-150.5t119.5-55.5q81 0 119 55.5t38 150.5-38 149-120 54-119-54-37-149z"/><path transform="translate(36.274 13.93) scale(.014 -.014)" d="M533 0H38V68L414 634H50V714H523V646L147 80H533Z"/><path transform="translate(44.282 13.93) scale(.014 -.014)" d="m343 546q96 0 145-46.5t49-150.5v-349h-87v343q0 129-120 129-89 0-123-50t-34-144v-278h-88v536h71l13-73h5q26 42 72 62.5t97 20.5z"/><path transform="translate(52.934 13.93) scale(.014 -.014)" d="m288 545q98 0 145-43t47-137v-365h-64l-17 76h-4q-35-44-73.5-65t-106.5-21q-73 0-121 38.5t-48 120.5q0 80 63 123.5t194 47.5l91 3v32q0 67-29 93t-82 26q-42 0-80-12.5t-71-28.5l-27 66q35 19 83 32.5t100 13.5zm26-286q-100-4-138.5-32t-38.5-79q0-45 27.5-66t70.5-21q68 0 113 37.5t45 115.5v48z"/><path transform="translate(60.788 13.93) scale(.014 -.014)" d="m673 546q91 0 136-46.5t45-150.5v-349h-87v345q0 127-109 127-78 0-111.5-45t-33.5-131v-296h-87v345q0 127-110 127-81 0-112-50t-31-144v-278h-88v536h71l13-73h5q25 42 67.5 62.5t90.5 20.5q126 0 164-90h5q27 46 73.5 68t98.5 22z"/><path transform="translate(73.878 13.93) scale(.014 -.014)" d="m292 546q69 0 118.5-30t76-84.5 26.5-127.5v-53h-367q2-91 46.5-138.5t124.5-47.5q51 0 90.5 9.5t81.5 27.5v-77q-41-18-81-26.5t-95-8.5q-76 0-134.5 31t-91 92.5-32.5 150.5q0 88 29.5 151t83 97 124.5 34zm-1-72q-63 0-99.5-40.5t-43.5-112.5h273q-1 68-32 110.5t-98 42.5z"/><path transform="translate(81.774 13.93) scale(.014 -.014)" d="m343 546q96 0 145-46.5t49-150.5v-349h-87v343q0 129-120 129-89 0-123-50t-34-144v-278h-88v536h71l13-73h5q26 42 72 62.5t97 20.5z"/><path transform="translate(90.426 13.93) scale(.014 -.014)" d="m343 546q96 0 145-46.5t49-150.5v-349h-87v343q0 129-120 129-89 0-123-50t-34-144v-278h-88v536h71l13-73h5q26 42 72 62.5t97 20.5z"/><path transform="translate(99.078 13.93) scale(.014 -.014)" d="m1 536h94l116-305q15-40 27-76.5t18-69.5h4q6 25 19 65.5t27 81.5l109 304h95l-231-610q-28-76-72.5-121t-122.5-45q-24 0-42 2.5t-31 5.5v70q11-2 26.5-4t32.5-2q46 0 74.5 26t44.5 69l28 71z"/><path transform="translate(109.86 13.93) scale(.014 -.014)" d="m412 0-235 626h-4q3-31 5-83.5t2-109.5v-433h-83v714h133l220-585h4l224 585h132v-714h-89v439q0 52 2.5 103t4.5 83h-4l-238-625z"/><path transform="translate(122.56 13.93) scale(.014 -.014)" d="m533 536v-536h-72l-13 71h-4q-26-42-72-61.5t-98-19.5q-97 0-146 46.5t-49 148.5v351h89v-345q0-128 119-128 89 0 123.5 50t34.5 144v279z"/><path transform="translate(131.21 13.93) scale(.014 -.014)" d="m434 148q0-78-58-118t-156-40q-56 0-96.5 9t-71.5 25v80q32-16 77.5-29.5t92.5-13.5q67 0 97 21.5t30 57.5q0 20-11 36t-39.5 32-81.5 36q-52 20-89 40t-57 48-20 72q0 68 55.5 105t145.5 37q49 0 91.5-9.5t79.5-26.5l-30-70q-34 14-71 24t-76 10q-54 0-82.5-17.5t-28.5-47.5q0-22 13-37.5t43.5-30 81.5-34.5q51-19 87-39t55-48.5 19-71.5z"/><path transform="translate(137.91 13.93) scale(.014 -.014)" d="m130 737q20 0 35.5-13.5t15.5-42.5q0-28-15.5-42t-35.5-14q-22 0-37 14t-15 42q0 29 15 42.5t37 13.5zm43-201v-536h-88v536z"/><path transform="translate(141.53 13.93) scale(.014 -.014)" d="m300-10q-71 0-126.5 29t-87 90-31.5 156q0 99 33 161t89.5 91 128.5 29q41 0 79-8.5t62-20.5l-27-73q-24 9-56 17t-60 8q-158 0-158-203 0-97 38.5-148.5t114.5-51.5q44 0 77.5 9t61.5 22v-78q-27-14-59.5-21.5t-78.5-7.5z"/><path transform="translate(148.25 13.93) scale(.014 -.014)" d="m288 545q98 0 145-43t47-137v-365h-64l-17 76h-4q-35-44-73.5-65t-106.5-21q-73 0-121 38.5t-48 120.5q0 80 63 123.5t194 47.5l91 3v32q0 67-29 93t-82 26q-42 0-80-12.5t-71-28.5l-27 66q35 19 83 32.5t100 13.5zm26-286q-100-4-138.5-32t-38.5-79q0-45 27.5-66t70.5-21q68 0 113 37.5t45 115.5v48z"/><path transform="translate(156.1 13.93) scale(.014 -.014)" d="m173 0h-88v760h88z"/><path transform="translate(163.35 13.93) scale(.014 -.014)" d="m663 0h-105l-382 593h-4q2-35 5-87t3-107v-399h-83v714h104l381-591h4q-1 16-2.5 48t-3 70-1.5 70v403h84z"/><path transform="translate(173.99 13.93) scale(.014 -.014)" d="m551 269q0-133-67.5-206t-182.5-73q-71 0-126.5 32.5t-87.5 95-32 151.5q0 133 67 205t182 72q73 0 128.5-32.5t87-94 31.5-150.5zm-405 0q0-95 37.5-150.5t119.5-55.5q81 0 119 55.5t38 150.5-38 149-120 54-119-54-37-149z"/><path transform="translate(182.46 13.93) scale(.014 -.014)" d="m264 62q20 0 41 3.5t34 7.5v-67q-14-7-40-11.5t-50-4.5q-42 0-77.5 14.5t-57.5 50.5-22 101v312h-76v42l77 35 35 114h52v-123h155v-68h-155v-310q0-49 23.5-72.5t60.5-23.5z"/><path transform="translate(187.52 13.93) scale(.014 -.014)" d="m288 545q98 0 145-43t47-137v-365h-64l-17 76h-4q-35-44-73.5-65t-106.5-21q-73 0-121 38.5t-48 120.5q0 80 63 123.5t194 47.5l91 3v32q0 67-29 93t-82 26q-42 0-80-12.5t-71-28.5l-27 66q35 19 83 32.5t100 13.5zm26-286q-100-4-138.5-32t-38.5-79q0-45 27.5-66t70.5-21q68 0 113 37.5t45 115.5v48z"/><path transform="translate(195.37 13.93) scale(.014 -.014)" d="m264 62q20 0 41 3.5t34 7.5v-67q-14-7-40-11.5t-50-4.5q-42 0-77.5 14.5t-57.5 50.5-22 101v312h-76v42l77 35 35 114h52v-123h155v-68h-155v-310q0-49 23.5-72.5t60.5-23.5z"/><path transform="translate(200.42 13.93) scale(.014 -.014)" d="m130 737q20 0 35.5-13.5t15.5-42.5q0-28-15.5-42t-35.5-14q-22 0-37 14t-15 42q0 29 15 42.5t37 13.5zm43-201v-536h-88v536z"/><path transform="translate(204.04 13.93) scale(.014 -.014)" d="m551 269q0-133-67.5-206t-182.5-73q-71 0-126.5 32.5t-87.5 95-32 151.5q0 133 67 205t182 72q73 0 128.5-32.5t87-94 31.5-150.5zm-405 0q0-95 37.5-150.5t119.5-55.5q81 0 119 55.5t38 150.5-38 149-120 54-119-54-37-149z"/><path transform="translate(212.51 13.93) scale(.014 -.014)" d="m343 546q96 0 145-46.5t49-150.5v-349h-87v343q0 129-120 129-89 0-123-50t-34-144v-278h-88v536h71l13-73h5q26 42 72 62.5t97 20.5z"/></svg>

<?xml version="1.0" encoding="utf-8" ?>
<svg baseProfile="tiny" height="100%" version="1.2" width="100%" xmlns="http://www.w3.org/2000/svg" xmlns:ev="http://www.w3.org/2001/xml-events" xmlns:xlink="http://www.w3.org/1999/xlink"><defs /><g><path d="M663 0H558L176 593H172Q174 558 177.0 506.0Q180 454 180 399V0H97V714H201L582 123H586Q585 139 583.5 171.0Q582 203 580.5 241.0Q579 279 579 311V714H663Z" transform="translate(0.0, 72) scale(0.072, -0.072)" /><path d="M551 269Q551 136 483.5 63.0Q416 -10 301 -10Q230 -10 174.5 22.5Q119 55 87.0 117.5Q55 180 55 269Q55 402 122.0 474.0Q189 546 304 546Q377 546 432.5 513.5Q488 481 519.5 419.5Q551 358 551 269ZM146 269Q146 174 183.5 118.5Q221 63 303 63Q384 63 422.0 118.5Q460 174 460 269Q460 364 422.0 418.0Q384 472 302 472Q220 472 183.0 418.0Q146 364 146 269Z" transform="translate(54.72, 72) scale(0.072, -0.072)" /><path d="M264 62Q284 62 305.0 65.5Q326 69 339 73V6Q325 -1 299.0 -5.5Q273 -10 249 -10Q207 -10 171.5 4.5Q136 19 114.0 55.0Q92 91 92 156V468H16V510L93 545L128 659H180V536H335V468H180V158Q180 109 203.5 85.5Q227 62 264 62Z" transform="translate(98.28, 72) scale(0.072, -0.072)" /><path d="M551 269Q551 136 483.5 63.0Q416 -10 301 -10Q230 -10 174.5 22.5Q119 55 87.0 117.5Q55 180 55 269Q55 402 122.0 474.0Q189 546 304 546Q377 546 432.5 513.5Q488 481 519.5 419.5Q551 358 551 269ZM146 269Q146 174 183.5 118.5Q221 63 303 63Q384 63 422.0 118.5Q460 174 460 269Q460 364 422.0 418.0Q384 472 302 472Q220 472 183.0 418.0Q146 364 146 269Z" transform="translate(124.27199999999999, 72) scale(0.072, -0.072)" /><path d="M533 0H38V68L414 634H50V714H523V646L147 80H533Z" transform="translate(186.552, 72) scale(0.072, -0.072)" /><path d="M343 546Q439 546 488.0 499.5Q537 453 537 349V0H450V343Q450 472 330 472Q241 472 207.0 422.0Q173 372 173 278V0H85V536H156L169 463H174Q200 505 246.0 525.5Q292 546 343 546Z" transform="translate(227.736, 72) scale(0.072, -0.072)" /><path d="M288 545Q386 545 433.0 502.0Q480 459 480 365V0H416L399 76H395Q360 32 321.5 11.0Q283 -10 215 -10Q142 -10 94.0 28.5Q46 67 46 149Q46 229 109.0 272.5Q172 316 303 320L394 323V355Q394 422 365.0 448.0Q336 474 283 474Q241 474 203.0 461.5Q165 449 132 433L105 499Q140 518 188.0 531.5Q236 545 288 545ZM314 259Q214 255 175.5 227.0Q137 199 137 148Q137 103 164.5 82.0Q192 61 235 61Q303 61 348.0 98.5Q393 136 393 214V262Z" transform="translate(272.23199999999997, 72) scale(0.072, -0.072)" /><path d="M673 546Q764 546 809.0 499.5Q854 453 854 349V0H767V345Q767 472 658 472Q580 472 546.5 427.0Q513 382 513 296V0H426V345Q426 472 316 472Q235 472 204.0 422.0Q173 372 173 278V0H85V536H156L169 463H174Q199 505 241.5 525.5Q284 546 332 546Q458 546 496 456H501Q528 502 574.5 524.0Q621 546 673 546Z" transform="translate(312.62399999999997, 72) scale(0.072, -0.072)" /><path d="M292 546Q361 546 410.5 516.0Q460 486 486.5 431.5Q513 377 513 304V251H146Q148 160 192.5 112.5Q237 65 317 65Q368 65 407.5 74.5Q447 84 489 102V25Q448 7 408.0 -1.5Q368 -10 313 -10Q237 -10 178.5 21.0Q120 52 87.5 113.5Q55 175 55 264Q55 352 84.5 415.0Q114 478 167.5 512.0Q221 546 292 546ZM291 474Q228 474 191.5 433.5Q155 393 148 321H421Q420 389 389.0 431.5Q358 474 291 474Z" transform="translate(379.94399999999996, 72) scale(0.072, -0.072)" /><path d="M343 546Q439 546 488.0 499.5Q537 453 537 349V0H450V343Q450 472 330 472Q241 472 207.0 422.0Q173 372 173 278V0H85V536H156L169 463H174Q200 505 246.0 525.5Q292 546 343 546Z" transform="translate(420.55199999999996, 72) scale(0.072, -0.072)" /><path d="M343 546Q439 546 488.0 499.5Q537 453 537 349V0H450V343Q450 472 330 472Q241 472 207.0 422.0Q173 372 173 278V0H85V536H156L169 463H174Q200 505 246.0 525.5Q292 546 343 546Z" transform="translate(465.04799999999994, 72) scale(0.072, -0.072)" /><path d="M1 536H95L211 231Q226 191 238.0 154.5Q250 118 256 85H260Q266 110 279.0 150.5Q292 191 306 232L415 536H510L279 -74Q251 -150 206.5 -195.0Q162 -240 84 -240Q60 -240 42.0 -237.5Q24 -235 11 -232V-162Q22 -164 37.5 -166.0Q53 -168 70 -168Q116 -168 144.5 -142.0Q173 -116 189 -73L217 -2Z" transform="translate(509.5439999999999, 72) scale(0.072, -0.072)" /><path d="M412 0 177 626H173Q176 595 178.0 542.5Q180 490 180 433V0H97V714H230L450 129H454L678 714H810V0H721V439Q721 491 723.5 542.0Q726 593 728 625H724L486 0Z" transform="translate(564.9839999999999, 72) scale(0.072, -0.072)" /><path d="M533 536V0H461L448 71H444Q418 29 372.0 9.5Q326 -10 274 -10Q177 -10 128.0 36.5Q79 83 79 185V536H168V191Q168 63 287 63Q376 63 410.5 113.0Q445 163 445 257V536Z" transform="translate(630.2879999999999, 72) scale(0.072, -0.072)" /><path d="M434 148Q434 70 376.0 30.0Q318 -10 220 -10Q164 -10 123.5 -1.0Q83 8 52 24V104Q84 88 129.5 74.5Q175 61 222 61Q289 61 319.0 82.5Q349 104 349 140Q349 160 338.0 176.0Q327 192 298.5 208.0Q270 224 217 244Q165 264 128.0 284.0Q91 304 71.0 332.0Q51 360 51 404Q51 472 106.5 509.0Q162 546 252 546Q301 546 343.5 536.5Q386 527 423 510L393 440Q359 454 322.0 464.0Q285 474 246 474Q192 474 163.5 456.5Q135 439 135 409Q135 387 148.0 371.5Q161 356 191.5 341.5Q222 327 273 307Q324 288 360.0 268.0Q396 248 415.0 219.5Q434 191 434 148Z" transform="translate(674.7839999999999, 72) scale(0.072, -0.072)" /><path d="M130 737Q150 737 165.5 723.5Q181 710 181 681Q181 653 165.5 639.0Q150 625 130 625Q108 625 93.0 639.0Q78 653 78 681Q78 710 93.0 723.5Q108 737 130 737ZM173 536V0H85V536Z" transform="translate(709.2719999999999, 72) scale(0.072, -0.072)" /><path d="M300 -10Q229 -10 173.5 19.0Q118 48 86.5 109.0Q55 170 55 265Q55 364 88.0 426.0Q121 488 177.5 517.0Q234 546 306 546Q347 546 385.0 537.5Q423 529 447 517L420 444Q396 453 364.0 461.0Q332 469 304 469Q146 469 146 266Q146 169 184.5 117.5Q223 66 299 66Q343 66 376.5 75.0Q410 84 438 97V19Q411 5 378.5 -2.5Q346 -10 300 -10Z" transform="translate(727.848, 72) scale(0.072, -0.072)" /><path d="M288 545Q386 545 433.0 502.0Q480 459 480 365V0H416L399 76H395Q360 32 321.5 11.0Q283 -10 215 -10Q142 -10 94.0 28.5Q46 67 46 149Q46 229 109.0 272.5Q172 316 303 320L394 323V355Q394 422 365.0 448.0Q336 474 283 474Q241 474 203.0 461.5Q165 449 132 433L105 499Q140 518 188.0 531.5Q236 545 288 545ZM314 259Q214 255 175.5 227.0Q137 199 137 148Q137 103 164.5 82.0Q192 61 235 61Q303 61 348.0 98.5Q393 136 393 214V262Z" transform="translate(762.4079999999999, 72) scale(0.072, -0.072)" /><path d="M173 0H85V760H173Z" transform="translate(802.8, 72) scale(0.072, -0.072)" /><path d="M663 0H558L176 593H172Q174 558 177.0 506.0Q180 454 180 399V0H97V714H201L582 123H586Q585 139 583.5 171.0Q582 203 580.5 241.0Q579 279 579 311V714H663Z" transform="translate(840.096, 72) scale(0.072, -0.072)" /><path d="M551 269Q551 136 483.5 63.0Q416 -10 301 -10Q230 -10 174.5 22.5Q119 55 87.0 117.5Q55 180 55 269Q55 402 122.0 474.0Q189 546 304 546Q377 546 432.5 513.5Q488 481 519.5 419.5Q551 358 551 269ZM146 269Q146 174 183.5 118.5Q221 63 303 63Q384 63 422.0 118.5Q460 174 460 269Q460 364 422.0 418.0Q384 472 302 472Q220 472 183.0 418.0Q146 364 146 269Z" transform="translate(894.816, 72) scale(0.072, -0.072)" /><path d="M264 62Q284 62 305.0 65.5Q326 69 339 73V6Q325 -1 299.0 -5.5Q273 -10 249 -10Q207 -10 171.5 4.5Q136 19 114.0 55.0Q92 91 92 156V468H16V510L93 545L128 659H180V536H335V468H180V158Q180 109 203.5 85.5Q227 62 264 62Z" transform="translate(938.376, 72) scale(0.072, -0.072)" /><path d="M288 545Q386 545 433.0 502.0Q480 459 480 365V0H416L399 76H395Q360 32 321.5 11.0Q283 -10 215 -10Q142 -10 94.0 28.5Q46 67 46 149Q46 229 109.0 272.5Q172 316 303 320L394 323V355Q394 422 365.0 448.0Q336 474 283 474Q241 474 203.0 461.5Q165 449 132 433L105 499Q140 518 188.0 531.5Q236 545 288 545ZM314 259Q214 255 175.5 227.0Q137 199 137 148Q137 103 164.5 82.0Q192 61 235 61Q303 61 348.0 98.5Q393 136 393 214V262Z" transform="translate(964.3679999999999, 72) scale(0.072, -0.072)" /><path d="M264 62Q284 62 305.0 65.5Q326 69 339 73V6Q325 -1 299.0 -5.5Q273 -10 249 -10Q207 -10 171.5 4.5Q136 19 114.0 55.0Q92 91 92 156V468H16V510L93 545L128 659H180V536H335V468H180V158Q180 109 203.5 85.5Q227 62 264 62Z" transform="translate(1004.76, 72) scale(0.072, -0.072)" /><path d="M130 737Q150 737 165.5 723.5Q181 710 181 681Q181 653 165.5 639.0Q150 625 130 625Q108 625 93.0 639.0Q78 653 78 681Q78 710 93.0 723.5Q108 737 130 737ZM173 536V0H85V536Z" transform="translate(1030.752, 72) scale(0.072, -0.072)" /><path d="M551 269Q551 136 483.5 63.0Q416 -10 301 -10Q230 -10 174.5 22.5Q119 55 87.0 117.5Q55 180 55 269Q55 402 122.0 474.0Q189 546 304 546Q377 546 432.5 513.5Q488 481 519.5 419.5Q551 358 551 269ZM146 269Q146 174 183.5 118.5Q221 63 303 63Q384 63 422.0 118.5Q460 174 460 269Q460 364 422.0 418.0Q384 472 302 472Q220 472 183.0 418.0Q146 364 146 269Z" transform="translate(1049.328, 72) scale(0.072, -0.072)" /><path d="M343 546Q439 546 488.0 499.5Q537 453 537 349V0H450V343Q450 472 330 472Q241 472 207.0 422.0Q173 372 173 278V0H85V536H156L169 463H174Q200 505 246.0 525.5Q292 546 343 546Z" transform="translate(1092.888, 72) scale(0.072, -0.072)" /></g></svg>
